assets/svg/media_icon.svg

<svg fill="none" height="26" viewBox="0 0 25 26" width="25" xmlns="http://www.w3.org/2000/svg"><g fill="#000"><path d="m19.7498.75h-14.50004c-2.76134 0-5.000004 2.23853-5.000004 5v10.2501c0 .2762.223853.5.5.5.276144 0 .500004-.2238.500004-.5v-10.2501c0-2.20917 1.79082-4 4-4h14.50004c2.2091 0 4 1.79083 4 4v1.5c0 .27613.2238.5.5.5.2761 0 .5-.22385.5-.5v-1.5c0-2.76133-2.2386-5-5-5z"/><path d="m24.2493 9.5c-.2762 0-.5.22385-.5.5v10.2501c0 2.2092-1.7909 4-4 4h-14.50003c-2.20918 0-4-1.7908-4-4v-1.5c0-.2761-.22386-.5-.500002-.5-.276147 0-.5.2239-.5.5v1.5c0 2.7614 2.238532 5 5.000002 5h14.50003c2.7613 0 5-2.2385 5-5v-10.2501c0-.27613-.2239-.5-.5-.5z"/><path d="m9.84595 18.1437c.25725 0 .51505-.0679.74995-.2032l6.3078-3.6416c.4697-.2714.75-.7572.75-1.2992s-.2803-1.0278-.75-1.2993l-6.3078-3.64162c-.5092-.29344-1.12547-.26802-1.60734.06834-.40824.28322-.64261.73197-.64261 1.23093v7.28325c0 .5425.28032 1.0278.74946 1.2988.2349.1355.49272.2034.75054.2034zm-.5-8.78563c0-.22802.13333-.35448.21333-.40968.08792-.06156.18656-.09229.28613-.09229.085 0 .17099.02292.25049.06885l6.3078 3.64165c.226.1304.25.3461.25.4331 0 .0868-.024.3027-.25.4331l-6.3078 3.6416c-.22455.1304-.42527.0434-.49997 0-.0752-.0434-.25-.1724-.25-.4331z"/></g></svg>

<svg width="25" height="26" viewBox="0 0 25 26" fill="none" xmlns="http://www.w3.org/2000/svg">
<path d="M19.7498 0.75H5.24976C2.48842 0.75 0.249756 2.98853 0.249756 5.75V16.0001C0.249756 16.2763 0.473609 16.5001 0.749756 16.5001C1.0259 16.5001 1.24976 16.2763 1.24976 16.0001V5.75C1.24976 3.54083 3.04058 1.75 5.24976 1.75H19.7498C21.9589 1.75 23.7498 3.54083 23.7498 5.75V7.25C23.7498 7.52613 23.9736 7.75 24.2498 7.75C24.5259 7.75 24.7498 7.52615 24.7498 7.25V5.75C24.7498 2.98867 22.5112 0.75 19.7498 0.75Z" fill="black"/>
<path d="M24.2493 9.5C23.9731 9.5 23.7493 9.72385 23.7493 10V20.2501C23.7493 22.4593 21.9584 24.2501 19.7493 24.2501H5.24927C3.04009 24.2501 1.24927 22.4593 1.24927 20.2501V18.7501C1.24927 18.474 1.02541 18.2501 0.749268 18.2501C0.473121 18.2501 0.249268 18.474 0.249268 18.7501V20.2501C0.249268 23.0115 2.4878 25.2501 5.24927 25.2501H19.7493C22.5106 25.2501 24.7493 23.0116 24.7493 20.2501V10C24.7493 9.72387 24.5254 9.5 24.2493 9.5Z" fill="black"/>
<path d="M9.84595 18.1437C10.1032 18.1437 10.361 18.0758 10.5959 17.9405L16.9037 14.2989C17.3734 14.0275 17.6537 13.5417 17.6537 12.9997C17.6537 12.4577 17.3734 11.9719 16.9037 11.7004L10.5959 8.05878C10.0867 7.76534 9.47043 7.79076 8.98856 8.12712C8.58032 8.41034 8.34595 8.85909 8.34595 9.35805V16.6413C8.34595 17.1838 8.62627 17.6691 9.09541 17.9401C9.33031 18.0756 9.58813 18.1435 9.84595 18.1435V18.1437ZM9.34595 9.35807C9.34595 9.13005 9.47928 9.00359 9.55928 8.94839C9.6472 8.88683 9.74584 8.8561 9.84541 8.8561C9.93041 8.8561 10.0164 8.87902 10.0959 8.92495L16.4037 12.5666C16.6297 12.697 16.6537 12.9127 16.6537 12.9997C16.6537 13.0865 16.6297 13.3024 16.4037 13.4328L10.0959 17.0744C9.87135 17.2048 9.67063 17.1178 9.59593 17.0744C9.52073 17.031 9.34593 16.902 9.34593 16.6413L9.34595 9.35807Z" fill="black"/>
</svg>
